X:4
T:An Australian Hymn
T:'Look Down Oh Lord' 1901
C:lyrics John Sandes (1863-1938) 
C:music Louis Lavater (1867 – 1953)
L:1/4
M:4/4
I:linebreak $
K:Eb
[I: MIDI=program 59]G, | C D _E G | F _E/D/ C D | _E2 D2 |$ C3 _B, | _E F G _B | _A G/F/ _E F | G2 F2 |$ _E3 G | G F/_E/ D _ | 
w: Look|down Oh lord of|light up- * on our|Aus- tral|Land. Pro-|tect her by the|sleep- less * might of|thy strong|hand A|cross Up * on her|
C2 D2 | G F/_E/ F _E |$ D3 G, | C D _E G | F _E/D/ C D | _E2 D2 |$ C3 :| 
w: brow was|set long * since for|sign. Oh,|crown her mid the|na- tions * now with|love di-|vine|



